X:300
T:Robinson Crusoe. JaW.300
T:?aka JaW.300
M:6/8
L:1/8
Q:3/8=120
S:James Winder Ms, Lancashire, 1835-41
R:.Jig
O:England
A:Wyresdale,Lancashire
Z:vmp.Chris Partington, Aug 2004
K:D
A|d2d {d}cBc|d3 def|{f}gfg e2a|{g}(f3e2) A|!
B2B Bcd|AFD D2d|Bgf edc|d3-d2:|!
|:A|AGF CEG|A2FD2F|BGD ddd|AFD Ddd|!
ABA AGF|(F3E2)A|d2d {d}cBc|d3 def|!
“NB”{f}gfg e2a|{a}(f3e2) A|B2B Bcd|!
AFD D2d|Bgf edc|d3-d2|]
W:NB=bar missing from MS |

